X:1
T:All The Things You Are
C:Kern & Hammerstein
L:1/4
M:C
I:linebreak $
K:Ab
"Fm" A4 |"Bbm" d3 A |"Eb7" G G G G |"Ab" G c2 G |"Db" F F F F ||[K:C]"G7" F B2 F |"C" E4 |
"C6" z4 ||$[K:Eb]"Cm" E4 |"Fm" A3 E |"Bb7" D D D D |"Eb" D G2 D |"Ab" C C C C ||
[K:G]"D7" C D/_E/ D C |"G" B,4 |$"G6" z D G d |"Am" d c c2 |"D4" z ^D E c |"G" B4 |"G6" z D G B ||$
[K:E]"F#m" B A A2 |"F7" z ^A, B, A |"E" G4 |"E6" z4 ||$[K:Ab]"Fm" A4 |"Bbm" d3 A |"Eb7" G G G G |
"Ab" G c2 G |"Db" F4 |"Dbm" e3 d |$"Cm" (3E E E (3E E E |"Bo" G3 F |"Bbm" D D F A |
"Eb4" f2"A7" G2 |"Ab6" A4 | z4 |]

